X:1
T:Jingle Bells
T:Jingle Bells
T:James Pierpont
L:1/8
M:2/4
K:C
V:1 treble transpose=-12 nm="Guitarra" snm="Guit."
V:1
"C" ee e2 | ee e2 | eg cd | e4 |"F" ff ff |"C" fe ee |"D7" ed de |"G" d2 g2 |"C" ee e2 | ee e2 | %10
 eg cd | e4 |"F" ff ff |"C" fe ee |"G7" gg fd |"C""^Fine" c4 ||"C" Ge dc | G4 | Ge dc |"Dm" A4 | %20
 Af ed |"G7" B4 | gg fd |"C" e4 |"C" Ge dc | G4 | Ge dc |"Dm" A4 | Af ed |"G7" g4 | ag ed | %31
"C""^D. C. al Fine" c4 |] %32

